picto/tourist-information-framed.svg

<svg class="color-immutable" width="30" height="30" viewBox="0 0 30 30" fill="none" xmlns="http://www.w3.org/2000/svg"><path d="M30 0H0V30H30V0Z" fill="#2D327D"/><path d="M25.5 3C26.325 3 27 3.675 27 4.5V25.5C27 26.325 26.325 27 25.5 27H4.5C3.675 27 3 26.325 3 25.5V4.5C3 3.675 3.675 3 4.5 3H25.5ZM25.5 2.625H4.5C3.46613 2.625 2.625 3.46613 2.625 4.5V25.5C2.625 26.5339 3.46613 27.375 4.5 27.375H25.5C26.5339 27.375 27.375 26.5339 27.375 25.5V4.5C27.375 3.46613 26.5339 2.625 25.5 2.625Z" fill="white"/><path d="M12.983 12.3346C12.983 11.3506 13.7807 10.5529 14.7647 10.5529C15.7486 10.5529 16.5462 11.3506 16.5462 12.3346C16.5462 13.3186 15.7486 14.1162 14.7647 14.1162C13.7807 14.1162 12.983 13.3186 12.983 12.3346Z" fill="white"/><path d="M11.9982 24.1002C11.9417 24.1003 11.6561 24.0437 11.6561 23.7474C11.6561 23.4932 11.8706 23.3943 11.9986 23.3943L13.1303 23.3938V15.7053L11.9982 15.7071C11.9417 15.7072 11.6561 15.6506 11.6561 15.3543C11.6561 15.1001 11.8706 15.0013 11.9986 15.0012L16.3402 14.9996L16.3401 23.3938L17.4649 23.3944C17.5929 23.3944 17.8073 23.4932 17.8073 23.7475C17.8073 24.0437 17.5218 24.1004 17.4653 24.1003H11.9982V24.1002Z" fill="white"/><path d="M7.9638 6V6.41528H7.28092V8.24865H6.79027V6.41528H6.11047V6H7.9638Z" fill="white"/><path d="M8.73289 6.52298C8.97694 6.52298 9.17637 6.60398 9.33124 6.76598C9.48402 6.92595 9.56044 7.13926 9.56044 7.40581C9.56044 7.68166 9.47892 7.90155 9.31587 8.06565C9.16309 8.21843 8.96419 8.29485 8.71909 8.29485C8.45764 8.29485 8.24944 8.20973 8.09464 8.03955C7.94697 7.87755 7.87317 7.66733 7.87317 7.40896C7.87317 7.15463 7.94494 6.94801 8.08849 6.78908C8.24734 6.61163 8.46214 6.52298 8.73289 6.52298ZM8.70979 6.87053C8.59189 6.87053 8.49807 6.91823 8.42832 7.01355C8.35759 7.10993 8.32219 7.24171 8.32219 7.40888C8.32219 7.58221 8.35707 7.71495 8.42682 7.80728C8.49859 7.90058 8.59654 7.94723 8.72059 7.94723C8.83647 7.94723 8.92827 7.9047 8.99592 7.81958C9.07279 7.72523 9.11127 7.58836 9.11127 7.40896C9.11127 7.24081 9.07744 7.11008 9.00972 7.01678C8.93892 6.91928 8.83894 6.87053 8.70979 6.87053Z" fill="white"/><path d="M11.3768 6.56909V8.24872H10.9523V8.00414C10.8241 8.19794 10.6446 8.29484 10.4139 8.29484C10.2129 8.29484 10.0612 8.22764 9.95869 8.09332C9.91969 8.04104 9.89179 7.97947 9.87484 7.90874C9.85789 7.83802 9.84949 7.74569 9.84949 7.63192V6.56909H10.2955V7.49347C10.2955 7.58984 10.2984 7.65802 10.304 7.69807C10.3096 7.73804 10.3212 7.77187 10.3386 7.79962C10.3858 7.87447 10.4663 7.91189 10.5801 7.91189C10.7206 7.91189 10.8226 7.84987 10.8862 7.72582C10.917 7.66529 10.9323 7.55609 10.9323 7.39822V6.56909H11.3768Z" fill="white"/><path d="M12.7656 6.54142V6.97364C12.6939 6.96029 12.6359 6.95362 12.5919 6.95362C12.4257 6.95362 12.3037 7.02337 12.2258 7.16279C12.1817 7.24072 12.1596 7.37092 12.1596 7.55347V8.24872H11.7136V6.56909H12.1381V6.87517C12.2591 6.64754 12.435 6.53369 12.6657 6.53369C12.6944 6.53369 12.7277 6.53624 12.7656 6.54142Z" fill="white"/><path d="M13.4225 6V6.40147H12.9764V6H13.4225ZM13.4225 6.57217V8.24873H12.9764V6.57217H13.4225Z" fill="white"/><path d="M15.1466 7.05974H14.7282C14.72 7.00229 14.7041 6.95872 14.6805 6.92902C14.6344 6.86954 14.5487 6.83984 14.4236 6.83984C14.3447 6.83984 14.2837 6.85417 14.2406 6.88289C14.1976 6.91162 14.1761 6.95212 14.1761 7.00439C14.1761 7.05974 14.1999 7.10024 14.2476 7.12589C14.2953 7.15154 14.4042 7.18177 14.5745 7.21664C14.7908 7.26074 14.9467 7.31557 15.042 7.38119C15.1548 7.45807 15.2112 7.57499 15.2112 7.73189C15.2112 7.91137 15.1415 8.05027 15.002 8.14874C14.8646 8.24617 14.6826 8.29484 14.456 8.29484C14.1751 8.29484 13.969 8.22562 13.8377 8.08717C13.7495 7.99282 13.7003 7.86412 13.6901 7.70114H14.1176C14.1258 7.77704 14.1453 7.83442 14.1761 7.87342C14.2335 7.94317 14.3283 7.97804 14.4606 7.97804C14.5529 7.97804 14.6262 7.95929 14.6806 7.92187C14.735 7.88444 14.7621 7.83397 14.7621 7.77037C14.7621 7.71292 14.7388 7.67017 14.6921 7.64197C14.6455 7.61377 14.5468 7.58227 14.396 7.54739C14.2505 7.51357 14.1473 7.48717 14.0869 7.46819C14.0264 7.44922 13.9721 7.42642 13.9238 7.39972C13.8613 7.36379 13.8126 7.31362 13.7777 7.24897C13.7429 7.18439 13.7255 7.11262 13.7255 7.03364C13.7255 6.85934 13.7978 6.72652 13.9424 6.63532C14.0603 6.56047 14.2244 6.52304 14.4346 6.52304C14.7125 6.52304 14.9119 6.59377 15.0329 6.73529C15.0983 6.81209 15.1363 6.92032 15.1466 7.05974Z" fill="white"/><path d="M16.3741 6.56602V6.88132H16.0403V7.6704C16.0403 7.76475 16.049 7.82475 16.0665 7.85032C16.0921 7.88722 16.1495 7.90567 16.2388 7.90567C16.2736 7.90567 16.3187 7.90312 16.3741 7.89795V8.2548C16.2736 8.26605 16.1814 8.27175 16.0973 8.27175C15.9702 8.27175 15.8733 8.25742 15.8066 8.2287C15.703 8.18257 15.6385 8.0985 15.6128 7.97647C15.6016 7.9242 15.5959 7.81597 15.5959 7.65195V6.88132H15.3236V6.56602H15.5959V6.17227H16.0404V6.56602H16.3741Z" fill="white"/></svg>

<svg class="color-immutable" width="30" height="30" viewBox="0 0 30 30" fill="none" xmlns="http://www.w3.org/2000/svg"><g clip-path="url(#a)"><path d="M30 0H0v30h30V0Z" fill="#2D327D"/><path d="M25.5 3c.825 0 1.5.675 1.5 1.5v21c0 .825-.675 1.5-1.5 1.5h-21c-.825 0-1.5-.675-1.5-1.5v-21C3 3.675 3.675 3 4.5 3h21Zm0-.375h-21A1.877 1.877 0 0 0 2.625 4.5v21c0 1.034.841 1.875 1.875 1.875h21a1.877 1.877 0 0 0 1.875-1.875v-21A1.877 1.877 0 0 0 25.5 2.625Z" fill="#fff"/><path d="M12.983 12.335a1.782 1.782 0 1 1 3.563 0 1.782 1.782 0 0 1-3.563 0ZM11.998 24.1c-.056 0-.342-.056-.342-.353 0-.254.215-.353.343-.353h1.131v-7.689l-1.132.002c-.056 0-.342-.056-.342-.353 0-.254.215-.353.343-.353L16.34 15v8.394h1.125c.128 0 .342.1.342.354 0 .296-.285.352-.342.352h-5.467ZM7.964 6v.415H7.28V8.25h-.49V6.415h-.68V6h1.853ZM8.733 6.523c.244 0 .443.081.598.243.153.16.23.373.23.64 0 .276-.082.496-.245.66a.807.807 0 0 1-.597.229c-.261 0-.47-.085-.624-.255-.148-.162-.222-.373-.222-.631 0-.254.072-.461.215-.62.16-.177.374-.266.645-.266Zm-.023.348a.331.331 0 0 0-.282.143.656.656 0 0 0-.106.395c0 .173.035.306.105.398a.35.35 0 0 0 .294.14.333.333 0 0 0 .275-.127c.077-.095.115-.232.115-.411 0-.168-.034-.299-.101-.392a.349.349 0 0 0-.3-.146ZM11.377 6.57v1.679h-.425v-.245a.61.61 0 0 1-.538.29c-.201 0-.353-.066-.455-.2a.5.5 0 0 1-.084-.185 1.227 1.227 0 0 1-.026-.277V6.569h.447v.924c0 .097.002.165.008.205.006.04.017.074.035.102.047.074.127.112.241.112a.32.32 0 0 0 .306-.186c.031-.06.046-.17.046-.328V6.57h.445ZM12.766 6.541v.433a.996.996 0 0 0-.174-.02.39.39 0 0 0-.366.209c-.044.078-.066.208-.066.39v.696h-.446v-1.68h.424v.306c.121-.227.297-.341.528-.341.028 0 .062.002.1.007ZM13.422 6v.401h-.446V6h.446Zm0 .572V8.25h-.446V6.572h.446ZM15.147 7.06h-.419a.27.27 0 0 0-.047-.131c-.047-.06-.132-.09-.257-.09a.329.329 0 0 0-.183.044.138.138 0 0 0-.065.121c0 .056.024.096.072.122.047.026.156.056.327.09.216.045.372.1.467.165.113.077.17.194.17.35a.48.48 0 0 1-.21.418c-.137.097-.32.146-.546.146-.28 0-.487-.07-.618-.208a.6.6 0 0 1-.148-.386h.428a.334.334 0 0 0 .058.172c.057.07.152.105.285.105a.382.382 0 0 0 .22-.056.175.175 0 0 0 .081-.152.14.14 0 0 0-.07-.128 1.2 1.2 0 0 0-.296-.095 4.825 4.825 0 0 1-.31-.079.881.881 0 0 1-.162-.068.376.376 0 0 1-.146-.151.447.447 0 0 1-.053-.215c0-.175.073-.307.217-.399.118-.075.282-.112.493-.112.277 0 .477.07.598.212a.551.551 0 0 1 .114.325ZM16.374 6.566v.315h-.334v.79c0 .094.009.154.027.18.025.036.082.055.172.055.035 0 .08-.003.135-.008v.357c-.1.011-.193.017-.277.017a.764.764 0 0 1-.29-.043.332.332 0 0 1-.194-.253 1.939 1.939 0 0 1-.017-.324v-.77h-.272v-.316h.272v-.394h.444v.394h.334Z" fill="#fff"/></g><defs><clipPath id="a"><path fill="#fff" d="M0 0h30v30H0z"/></clipPath></defs></svg>
